images/Brickblock.svg

<svg height="250" viewBox="0 0 250 250" width="250" xmlns="http://www.w3.org/2000/svg"><path d="m243.167969 124.316406c0 65.640625-53.210938 118.851563-118.851563 118.851563s-118.851562-53.210938-118.851562-118.851563 53.210937-118.851562 118.851562-118.851562 118.851563 53.210937 118.851563 118.851562zm0 0" fill="#3866ff"/><g fill="#fff"><path d="m124.339844 186.597656 54.207031-27.253906v-67.058594l-54.207031 27.242188zm0 0"/><path d="m68.304688 88.714844 52.125-27.238282 56.28125 27.238282-54.195313 27.253906zm0 0"/></g></svg>

<svg xmlns="http://www.w3.org/2000/svg" xmlns:xlink="http://www.w3.org/1999/xlink" width="250px" height="250px" viewBox="0 0 250 250" version="1.1">
<g id="surface1">
<path style=" stroke:none;fill-rule:nonzero;fill:rgb(21.960784%,40.000001%,100%);fill-opacity:1;" d="M 243.167969 124.316406 C 243.167969 189.957031 189.957031 243.167969 124.316406 243.167969 C 58.675781 243.167969 5.464844 189.957031 5.464844 124.316406 C 5.464844 58.675781 58.675781 5.464844 124.316406 5.464844 C 189.957031 5.464844 243.167969 58.675781 243.167969 124.316406 Z M 243.167969 124.316406 "/>
<path style=" stroke:none;fill-rule:nonzero;fill:rgb(100%,100%,100%);fill-opacity:1;" d="M 124.339844 186.597656 L 178.546875 159.34375 L 178.546875 92.285156 L 124.339844 119.527344 Z M 124.339844 186.597656 "/>
<path style=" stroke:none;fill-rule:nonzero;fill:rgb(100%,100%,100%);fill-opacity:1;" d="M 68.304688 88.714844 L 120.429688 61.476562 L 176.710938 88.714844 L 122.515625 115.96875 Z M 68.304688 88.714844 "/>
</g>
</svg>
